X:1820
T:Bourree
Z:abc transcription Simon Wascher
N:please mail errors to: simon.wascher@chello.at
M:2/4
L:1/8
K:D
d3/2A/2 Ad|_cB AB|E3/2F/2 GB|AE FD|
d3/2A/2 Ad|_cB AB|E3/2F/2 GA|Bc de:|
|:BG Ed|dB Ge|ec AB|cd cA|
BG Ed|dB Ge|ec AF|GA FD:|"Coda"E4|]
